icons/media/volume-down.svg

<svg width="32" height="32" viewBox="0 0 32 32" xmlns="http://www.w3.org/2000/svg"><path fill-rule="evenodd" clip-rule="evenodd" d="M18.0005 4.60361C18.0005 3.48998 16.6541 2.93227 15.8666 3.71973L9.58627 10.0001H4.00049C2.89592 10.0001 2.00049 10.8955 2.00049 12.0001V20.0001C2.00049 21.1046 2.89592 22.0001 4.00049 22.0001H9.58627L15.8666 28.2804C16.6541 29.0679 18.0005 28.5101 18.0005 27.3965V4.60361ZM11.0005 11.4143L16.0005 6.41427V25.5859L11.0005 20.5859C10.6254 20.2108 10.1167 20.0001 9.58627 20.0001H4.00049V12.0001H9.58627C10.1167 12.0001 10.6254 11.7894 11.0005 11.4143ZM24.9999 16C24.9999 14.0176 24.2462 12.2089 23.0114 10.8485L21.5305 12.1928C22.4443 13.1995 22.9999 14.5337 22.9999 16C22.9999 17.4662 22.4443 18.8004 21.5305 19.8072L23.0114 21.1514C24.2462 19.791 24.9999 17.9823 24.9999 16Z"/></svg>

<svg viewBox="0 0 32 32" xmlns="http://www.w3.org/2000/svg"><path fill-rule="evenodd" d="M18 4.604c0-1.114-1.346-1.672-2.133-.884L9.587 10H4a2 2 0 00-2 2v8a2 2 0 002 2h5.586l6.28 6.28c.788.788 2.134.23 2.134-.884V4.604zm-7 6.81l5-5v19.172l-5-5A2 2 0 009.587 20H4v-8h5.586a2 2 0 001.415-.586zM25 16a7.643 7.643 0 00-1.989-5.152l-1.48 1.345A5.642 5.642 0 0123 16c0 1.466-.556 2.8-1.47 3.807l1.481 1.344A7.643 7.643 0 0025 16z"/></svg>
